!!!OTL: WAR EINST EIN JUNG ZIMMERGESELL
!!!ARE: Europa, Mitteleuropa, Deutschland
!!!SCT: E0129
!!!YEM: Copyright 1995, estate of Helmut Schaffrath.
**kern
*ICvox
*Ivox
*M6/8
*k[b-]
*F:
{8c
=1
4f
8f
8a
8g
8f
=2
8.g
16g
8g
8b-
8a}
{8g
=3
4d
8d
8f
8e
8d
=4
2a
8r}
{8cc
=5
4cc
8b-
8dd
8dd
8b-
=6
8b-
8b-
8a
4cc}
{8a
=7
8a
8a
8g
4a
8b-
=8
2cc
8r}
{8cc
=9
4cc
8cc
8dd
8dd
8b-
=10
4b-
8a
4cc}
{8a
=11
4a
8g
4b-
8a
=12
2f
8r}
==
!!!AGN: erzaehlendes Volks - Lied, Schalk -, Schelmen - Lied, Liebe; Handwerk     Ballade ?
!!!ONB: ESAC (Essen Associative Code) Database: ERK1
!!!AMT: compound duple
!!!AIN: vox
!!!EED: Helmut Schaffrath
!!!EEV: 1.0
*-
!!!title: @{OTL} [@{SCT}]
